markets/DAI.svg

<svg width="42" height="42" viewBox="0 0 42 42" fill="none" xmlns="http://www.w3.org/2000/svg">
<g clip-path="url(#clip0_7277_55735)">
<path d="M21 0C32.599 0 42 9.40284 42 21C42 32.599 32.599 42 21 42C9.40284 42 0 32.5981 0 21C0 9.40284 9.40284 0 21 0Z" fill="#F5AC37"/>
<path d="M22.194 22.4826H30.1736C30.3437 22.4826 30.4241 22.4827 30.4364 22.2596C30.5016 21.4479 30.5016 20.6314 30.4364 19.8187C30.4364 19.6609 30.3579 19.5956 30.1869 19.5956H14.306C14.1094 19.5956 14.0565 19.6609 14.0565 19.8451V22.1812C14.0565 22.4826 14.0565 22.4826 14.3712 22.4826H22.194V22.4826ZM29.5452 16.8655C29.5679 16.806 29.5679 16.7408 29.5452 16.6822C29.412 16.3921 29.2541 16.1152 29.0708 15.8553C28.7949 15.4111 28.4698 15.002 28.0993 14.6343C27.9245 14.4123 27.7223 14.2129 27.4955 14.0437C26.3596 13.077 25.0092 12.3928 23.5576 12.0488C22.8252 11.8844 22.0768 11.8059 21.3265 11.8125H14.2786C14.082 11.8125 14.0556 11.891 14.0556 12.062V16.7209C14.0556 16.9175 14.0556 16.9704 14.305 16.9704H29.4507C29.4507 16.9704 29.5821 16.9439 29.6085 16.8655H29.5443H29.5452ZM29.5452 25.2128C29.3222 25.1882 29.0973 25.1882 28.8743 25.2128H14.3192C14.1227 25.2128 14.0565 25.2128 14.0565 25.4755V30.0304C14.0565 30.2402 14.0565 30.2932 14.3192 30.2932H21.0392C21.3605 30.3177 21.6818 30.295 21.9965 30.2279C22.9717 30.158 23.9309 29.9463 24.8457 29.5976C25.1783 29.4823 25.4996 29.3321 25.803 29.1516H25.8946C27.47 28.3323 28.7495 27.0452 29.5565 25.4651C29.5565 25.4651 29.6482 25.2666 29.5452 25.2147V25.2128ZM11.419 32.6547V32.5763V29.5182V28.4816V25.3971C11.419 25.226 11.419 25.2005 11.2092 25.2005H8.36093C8.20311 25.2005 8.13791 25.2005 8.13791 24.9907V22.4968H11.1827C11.3528 22.4968 11.419 22.4968 11.419 22.2738V19.8064C11.419 19.6486 11.419 19.6098 11.2092 19.6098H8.36093C8.20311 19.6098 8.13791 19.6098 8.13791 19.4V17.0904C8.13791 16.9458 8.13791 16.9071 8.3477 16.9071H11.1695C11.3661 16.9071 11.419 16.9071 11.419 16.6576V9.58327C11.419 9.37348 11.419 9.32056 11.6817 9.32056H21.5249C22.2393 9.34891 22.949 9.42734 23.6512 9.55681C25.098 9.82425 26.4881 10.3412 27.7591 11.0792C28.6021 11.5753 29.3779 12.1745 30.0687 12.8643C30.5885 13.4039 31.0572 13.988 31.473 14.6098C31.886 15.2401 32.229 15.9139 32.4984 16.6179C32.5314 16.8013 32.7072 16.925 32.8905 16.8939H35.2398C35.5413 16.8939 35.5413 16.8939 35.5545 17.183V19.3358C35.5545 19.5456 35.4761 19.5985 35.2653 19.5985H33.4538C33.2704 19.5985 33.2175 19.5985 33.2307 19.8347C33.3026 20.6342 33.3026 21.4365 33.2307 22.236C33.2307 22.459 33.2307 22.4855 33.4812 22.4855H35.5536C35.6452 22.6036 35.5536 22.7217 35.5536 22.8408C35.5668 22.993 35.5668 23.147 35.5536 23.2991V24.8877C35.5536 25.1107 35.4884 25.1769 35.2909 25.1769H32.8102C32.6373 25.1438 32.4691 25.2544 32.4294 25.4264C31.8387 26.962 30.8937 28.3389 29.6728 29.4426C29.2267 29.8443 28.758 30.2223 28.2685 30.571C27.7431 30.8734 27.2318 31.1881 26.6932 31.4376C25.7019 31.8836 24.6623 32.2125 23.5954 32.4213C22.5824 32.6028 21.5552 32.685 20.5241 32.6708H11.4152V32.6576L11.419 32.6547Z" fill="#FEFEFD"/>
</g>
<defs>
<clipPath id="clip0_7277_55735">
<rect width="42" height="42" fill="white"/>
</clipPath>
</defs>
</svg>

<svg xmlns="http://www.w3.org/2000/svg" width="42" height="42" fill="none"><g clip-path="url(#a)"><path fill="#F5AC37" d="M21 0c11.599 0 21 9.403 21 21 0 11.599-9.401 21-21 21C9.403 42 0 32.598 0 21 0 9.403 9.403 0 21 0Z"/><path fill="#FEFEFD" d="M22.194 22.483h7.98c.17 0 .25 0 .262-.223.066-.812.066-1.629 0-2.441 0-.158-.078-.223-.25-.223h-15.88c-.197 0-.25.065-.25.25v2.335c0 .302 0 .302.315.302h7.823Zm7.351-5.617a.255.255 0 0 0 0-.184 5.19 5.19 0 0 0-.474-.827 6.694 6.694 0 0 0-.972-1.22 3.223 3.223 0 0 0-.604-.591 9.435 9.435 0 0 0-3.937-1.995 9.791 9.791 0 0 0-2.232-.236H14.28c-.197 0-.223.078-.223.249v4.659c0 .197 0 .25.249.25h15.146s.131-.027.157-.105h-.064.001Zm0 8.347a3.059 3.059 0 0 0-.67 0H14.318c-.196 0-.263 0-.263.262v4.555c0 .21 0 .263.263.263h6.72c.321.025.643.002.957-.065.976-.07 1.935-.282 2.85-.63.332-.116.654-.266.957-.446h.092a8.526 8.526 0 0 0 3.662-3.687s.091-.198-.012-.25v-.002ZM11.42 32.655v-7.258c0-.171 0-.196-.21-.196H8.361c-.158 0-.223 0-.223-.21v-2.494h3.045c.17 0 .236 0 .236-.223v-2.468c0-.157 0-.196-.21-.196H8.361c-.158 0-.223 0-.223-.21v-2.31c0-.144 0-.183.21-.183h2.821c.197 0 .25 0 .25-.25V9.584c0-.21 0-.262.263-.262h9.843c.714.028 1.424.106 2.126.236a12.83 12.83 0 0 1 4.108 1.522 11.576 11.576 0 0 1 2.31 1.785c.52.54.988 1.124 1.404 1.746.413.63.756 1.304 1.025 2.008a.342.342 0 0 0 .393.276h2.349c.301 0 .301 0 .314.289v2.153c0 .21-.078.263-.289.263h-1.811c-.184 0-.236 0-.223.236.072.8.072 1.601 0 2.401 0 .223 0 .25.25.25h2.073c.091.118 0 .236 0 .355.013.152.013.306 0 .458v1.589c0 .223-.066.289-.263.289h-2.48a.328.328 0 0 0-.382.25 10.496 10.496 0 0 1-2.756 4.016c-.446.401-.915.78-1.404 1.128-.526.302-1.037.617-1.576.867-.991.446-2.03.774-3.098.983-1.013.182-2.04.264-3.07.25h-9.11v-.013l.004-.003Z"/></g><defs><clipPath id="a"><path fill="#fff" d="M0 0h42v42H0z"/></clipPath></defs></svg>
